X: 30627
T: One-Horned Buck, The
R: reel
M: 4/4
K: Dmajor
D2 AD BcdB|D2 BF AFEF|D2 AD BcdB|GA~AF AFEF:|
B2 cB A2 FA|B2 cB AFEF|B2 cB A2 ag|(3fgf ef dBAF|
B2 cB A2 FA|B2 cB AFEF|B2 cB Aaag|(3fgf ef dBAF|

